(.../external_usr-lang-prog/pcbgcode/pcb-gcode.ulp)
(Copyright 2005 - 2012 by John Johnson)
(See readme.txt for licensing terms.)
(This file generated from the board:)
(.../Documents/eagle/wemos_ora/fasz.brd)
(Current profile is .../external_usr-lang-prog/pcbgcode/profiles/mach.pp  )
(This file generated 2017. 12. 13. 23:23)
(Settings from pcb-machine.h)
(spindle on time = 3.0000)
(  Tool Size)
(0.5000  )
(spindle speed = 30000.0000)
(tool change at 0.0000  0.0000  25.4000 )
(feed rate xy = F400   )
(feed rate z  = F400   )
(Z Axis Settings)
(  High     Up        Down     Drill)
(12.7000 	2.5400  	-5.0000 	-0.8128 )
(Settings from pcb-defaults.h)
(isolate min = 0.0254)
(isolate max = 0.5080)
(isolate step = 0.1270)
(Generated bottom outlines, )
(Unit of measure: mm)
(Metric Mode)
G21
(Absolute Coordinates)
G90
S30000
G00 Z12.7000 
G00 X0.0000  Y0.0000  
M03
G04 P3.000000
G00 Z2.5400  
G00 X-0.3193 Y12.0742 
G01 Z-5.0000 F400   
G01 X-0.8359 Y11.7968 F400   
G01 X-1.3687 Y11.5517 
G01 X-1.9155 Y11.3398 
G01 X-2.4743 Y11.1621 
G01 X-3.0431 Y11.0190 
G01 X-3.6195 Y10.9113 
G01 X-4.2015 Y10.8392 
G01 X-4.7868 Y10.8031 
G01 X-5.3732 Y10.8031 
G01 X-5.9585 Y10.8392 
G01 X-6.5405 Y10.9113 
G01 X-7.1169 Y11.0190 
G01 X-7.6857 Y11.1621 
G01 X-8.2445 Y11.3398 
G01 X-8.7913 Y11.5517 
G01 X-9.3241 Y11.7968 
G01 X-9.8407 Y12.0742 
G01 X-10.3393 Y12.3829 
G01 X-10.8179 Y12.7218 
G01 X-11.2748 Y13.0894 
G01 X-11.7082 Y13.4845 
G01 X-12.1164 Y13.9055 
G01 X-12.4979 Y14.3508 
G01 X-12.8513 Y14.8188 
G01 X-13.1753 Y15.3076 
G01 X-13.4685 Y15.8155 
G01 X-13.7299 Y16.3404 
G01 X-13.9584 Y16.8805 
G01 X-14.1533 Y17.4336 
G01 X-14.3138 Y17.9976 
G01 X-14.4085 Y18.4298 
G01 X-14.4604 Y18.9345 
G01 X-14.5587 Y19.5050 
G01 X-14.5642 Y19.5275 
G01 X-14.5833 Y19.7339 
G01 X-14.6014 Y20.3200 
G01 X-14.5833 Y20.9061 
G01 X-14.5292 Y21.4901 
G01 X-14.4393 Y22.0696 
G01 X-14.3138 Y22.6424 
G01 X-14.1533 Y23.2064 
G01 X-13.9584 Y23.7595 
G01 X-13.7299 Y24.2996 
G01 X-13.4685 Y24.8245 
G01 X-13.1753 Y25.3324 
G01 X-12.8513 Y25.8212 
G01 X-12.4979 Y26.2892 
G01 X-12.1164 Y26.7345 
G01 X-11.7082 Y27.1555 
G01 X-11.2748 Y27.5506 
G01 X-10.8179 Y27.9182 
G01 X-10.3393 Y28.2571 
G01 X-9.8407 Y28.5658 
G01 X-9.3240 Y28.8432 
G01 X-9.2391 Y28.8823 
G01 X-9.1839 Y28.8270 
G01 X-9.0747 Y28.7640 
G01 X-8.9530 Y28.7314 
G01 X-8.8270 Y28.7314 
G01 X-8.7053 Y28.7640 
G01 X-8.5961 Y28.8270 
G01 X-8.5070 Y28.9161 
G01 X-8.4440 Y29.0253 
G01 X-8.4114 Y29.1470 
G01 X-8.4114 Y29.2355 
G01 X-8.2445 Y29.3001 
G01 X-7.6857 Y29.4779 
G01 X-7.1169 Y29.6210 
G01 X-6.5405 Y29.7287 
G01 X-5.9585 Y29.8008 
G01 X-5.3732 Y29.8369 
G01 X-4.7868 Y29.8369 
G01 X-4.2015 Y29.8008 
G01 X-3.6195 Y29.7287 
G01 X-3.0431 Y29.6210 
G01 X-2.4743 Y29.4779 
G01 X-1.9155 Y29.3001 
G01 X-1.3687 Y29.0883 
G01 X-0.8359 Y28.8432 
G01 X-0.3193 Y28.5658 
G01 X0.1793  Y28.2571 
G01 X0.6579  Y27.9182 
G01 X1.1148  Y27.5506 
G01 X1.5482  Y27.1555 
G01 X1.9564  Y26.7345 
G01 X2.3379  Y26.2892 
G01 X2.6913  Y25.8212 
G01 X3.0153  Y25.3324 
G01 X3.3085  Y24.8245 
G01 X3.5699  Y24.2996 
G01 X3.7984  Y23.7595 
G01 X3.9933  Y23.2064 
G01 X4.1538  Y22.6424 
G01 X4.2793  Y22.0695 
G01 X4.3692  Y21.4901 
G01 X4.4233  Y20.9061 
G01 X4.4414  Y20.3200 
G01 X4.4233  Y19.7339 
G01 X4.3692  Y19.1499 
G01 X4.2793  Y18.5704 
G01 X4.1538  Y17.9976 
G01 X3.9933  Y17.4336 
G01 X3.7984  Y16.8805 
G01 X3.5699  Y16.3404 
G01 X3.3085  Y15.8155 
G01 X3.0153  Y15.3076 
G01 X2.6913  Y14.8188 
G01 X2.3379  Y14.3508 
G01 X1.9564  Y13.9055 
G01 X1.5482  Y13.4845 
G01 X1.1148  Y13.0894 
G01 X0.6579  Y12.7218 
G01 X0.1793  Y12.3829 
G01 X-0.3193 Y12.0742 
G00 Z2.5400  
G00 X5.1242  Y22.6837 
G01 Z-5.0000 F400   
G01 X5.0821  Y22.8759 F400   
G01 X4.9055  Y23.4966 
G01 X4.6910  Y24.1053 
G01 X4.4394  Y24.6996 
G01 X4.1518  Y25.2774 
G01 X3.8291  Y25.8363 
G01 X3.4726  Y26.3743 
G01 X3.0837  Y26.8893 
G01 X2.6638  Y27.3794 
G01 X2.2145  Y27.8427 
G01 X1.7376  Y28.2775 
G01 X1.2348  Y28.6821 
G01 X0.7080  Y29.0550 
G01 X0.1593  Y29.3947 
G01 X-0.4093 Y29.7001 
G01 X-0.9956 Y29.9698 
G01 X-1.5974 Y30.2029 
G01 X-2.2124 Y30.3986 
G01 X-2.8383 Y30.5560 
G01 X-3.4727 Y30.6746 
G01 X-4.1132 Y30.7539 
G01 X-4.7573 Y30.7936 
G01 X-5.4027 Y30.7936 
G01 X-6.0468 Y30.7539 
G01 X-6.6873 Y30.6746 
G01 X-7.3217 Y30.5560 
G01 X-7.9476 Y30.3986 
G01 X-8.4114 Y30.2510 
G01 X-8.4114 Y48.3230 
G01 X-8.4114 Y48.5155 
G01 X-8.4496 Y49.0251 
G01 X-8.5258 Y49.5304 
G01 X-8.6395 Y50.0286 
G01 X-8.7901 Y50.5169 
G01 X-8.9768 Y50.9926 
G01 X-9.1985 Y51.4530 
G01 X-9.4540 Y51.8956 
G01 X-9.7419 Y52.3178 
G01 X-10.0605 Y52.7173 
G01 X-10.4081 Y53.0919 
G01 X-10.7827 Y53.4395 
G01 X-11.1822 Y53.7581 
G01 X-11.6044 Y54.0460 
G01 X-12.0470 Y54.3015 
G01 X-12.5074 Y54.5232 
G01 X-12.9831 Y54.7099 
G01 X-13.3212 Y54.8142 
G01 X5.1242  Y54.8142 
G01 X5.1242  Y22.6837 
G00 Z2.5400  
G00 X-15.2421 Y22.8759 
G01 Z-5.0000 F400   
G01 X-15.3802 Y22.2454 F400   
G01 X-15.4384 Y21.8701 
G01 X-15.6157 Y22.1853 
G01 X-15.9332 Y22.6694 
G01 X-16.2831 Y23.1307 
G01 X-16.6635 Y23.5671 
G01 X-17.0729 Y23.9765 
G01 X-17.5093 Y24.3569 
G01 X-17.9706 Y24.7068 
G01 X-18.4547 Y25.0243 
G01 X-18.9593 Y25.3080 
G01 X-19.4821 Y25.5567 
G01 X-20.0207 Y25.7691 
G01 X-20.5725 Y25.9442 
G01 X-21.1114 Y26.0755 
G01 X-21.1114 Y48.2600 
G01 X-21.1073 Y48.4795 
G01 X-21.0745 Y48.9174 
G01 X-21.0090 Y49.3516 
G01 X-20.9113 Y49.7796 
G01 X-20.7819 Y50.1992 
G01 X-20.6215 Y50.6079 
G01 X-20.4310 Y51.0035 
G01 X-20.2115 Y51.3838 
G01 X-19.9641 Y51.7466 
G01 X-19.6904 Y52.0898 
G01 X-19.3917 Y52.4117 
G01 X-19.0698 Y52.7104 
G01 X-18.7266 Y52.9841 
G01 X-18.3638 Y53.2315 
G01 X-17.9835 Y53.4510 
G01 X-17.5879 Y53.6415 
G01 X-17.1792 Y53.8019 
G01 X-16.7596 Y53.9313 
G01 X-16.3316 Y54.0290 
G01 X-15.8974 Y54.0945 
G01 X-15.4595 Y54.1273 
G01 X-15.2400 Y54.1314 
G01 X-15.0205 Y54.1273 
G01 X-14.5826 Y54.0945 
G01 X-14.1484 Y54.0290 
G01 X-13.7204 Y53.9313 
G01 X-13.3008 Y53.8019 
G01 X-12.8921 Y53.6415 
G01 X-12.4965 Y53.4510 
G01 X-12.1162 Y53.2315 
G01 X-11.7534 Y52.9841 
G01 X-11.4102 Y52.7104 
G01 X-11.0883 Y52.4117 
G01 X-10.7896 Y52.0898 
G01 X-10.5159 Y51.7466 
G01 X-10.2685 Y51.3838 
G01 X-10.0490 Y51.0035 
G01 X-9.8585 Y50.6079 
G01 X-9.6981 Y50.1992 
G01 X-9.5687 Y49.7796 
G01 X-9.4710 Y49.3516 
G01 X-9.4055 Y48.9174 
G01 X-9.3727 Y48.4795 
G01 X-9.3686 Y48.2600 
G01 X-9.3686 Y29.8759 
G01 X-9.7507 Y29.7001 
G01 X-10.3193 Y29.3947 
G01 X-10.8680 Y29.0550 
G01 X-11.3948 Y28.6821 
G01 X-11.8976 Y28.2775 
G01 X-12.3745 Y27.8427 
G01 X-12.8238 Y27.3794 
G01 X-13.2437 Y26.8893 
G01 X-13.6326 Y26.3743 
G01 X-13.9891 Y25.8363 
G01 X-14.3118 Y25.2774 
G01 X-14.5994 Y24.6996 
G01 X-14.8510 Y24.1053 
G01 X-15.0655 Y23.4966 
G01 X-15.2421 Y22.8759 
G00 Z2.5400  
G00 X-17.0256 Y22.5267 
G01 Z-5.0000 F400   
G01 X-16.7152 Y22.1174 F400   
G01 X-16.4336 Y21.6880 
G01 X-16.1819 Y21.2403 
G01 X-15.9613 Y20.7765 
G01 X-15.7729 Y20.2988 
G01 X-15.6175 Y19.8092 
G01 X-15.5105 Y19.3700 
G01 X-15.4792 Y19.0323 
G01 X-15.3802 Y18.3946 
G01 X-15.3558 Y18.2832 
G01 X-15.3386 Y17.7800 
G01 X-15.3561 Y17.2667 
G01 X-15.4087 Y16.7558 
G01 X-15.4959 Y16.2497 
G01 X-15.6175 Y15.7507 
G01 X-15.7729 Y15.2612 
G01 X-15.9613 Y14.7835 
G01 X-16.1819 Y14.3197 
G01 X-16.4336 Y13.8720 
G01 X-16.7152 Y13.4426 
G01 X-17.0256 Y13.0333 
G01 X-17.3631 Y12.6462 
G01 X-17.7262 Y12.2831 
G01 X-18.1133 Y11.9456 
G01 X-18.5226 Y11.6352 
G01 X-18.9520 Y11.3536 
G01 X-19.3997 Y11.1019 
G01 X-19.8635 Y10.8813 
G01 X-20.3412 Y10.6929 
G01 X-20.8307 Y10.5375 
G01 X-21.3297 Y10.4159 
G01 X-21.8358 Y10.3287 
G01 X-22.3467 Y10.2761 
G01 X-22.8600 Y10.2586 
G01 X-23.3733 Y10.2761 
G01 X-23.8842 Y10.3287 
G01 X-24.3903 Y10.4159 
G01 X-24.8893 Y10.5375 
G01 X-25.3788 Y10.6929 
G01 X-25.8565 Y10.8813 
G01 X-26.3203 Y11.1019 
G01 X-26.7680 Y11.3536 
G01 X-27.1974 Y11.6352 
G01 X-27.6067 Y11.9456 
G01 X-27.9938 Y12.2831 
G01 X-28.3569 Y12.6462 
G01 X-28.6944 Y13.0333 
G01 X-29.0048 Y13.4426 
G01 X-29.2864 Y13.8720 
G01 X-29.5381 Y14.3197 
G01 X-29.7587 Y14.7835 
G01 X-29.9471 Y15.2612 
G01 X-30.1025 Y15.7508 
G01 X-30.2241 Y16.2497 
G01 X-30.3113 Y16.7558 
G01 X-30.3639 Y17.2667 
G01 X-30.3814 Y17.7800 
G01 X-30.3639 Y18.2933 
G01 X-30.3113 Y18.8042 
G01 X-30.2241 Y19.3103 
G01 X-30.1025 Y19.8092 
G01 X-29.9471 Y20.2988 
G01 X-29.7587 Y20.7765 
G01 X-29.5381 Y21.2403 
G01 X-29.2864 Y21.6880 
G01 X-29.0048 Y22.1174 
G01 X-28.6944 Y22.5267 
G01 X-28.3569 Y22.9138 
G01 X-27.9938 Y23.2769 
G01 X-27.6067 Y23.6144 
G01 X-27.1974 Y23.9248 
G01 X-26.7680 Y24.2064 
G01 X-26.3203 Y24.4581 
G01 X-25.8565 Y24.6787 
G01 X-25.3788 Y24.8671 
G01 X-24.8892 Y25.0225 
G01 X-24.3903 Y25.1441 
G01 X-23.8842 Y25.2313 
G01 X-23.3733 Y25.2839 
G01 X-22.8600 Y25.3014 
G01 X-22.3467 Y25.2839 
G01 X-22.0461 Y25.2530 
G01 X-22.0360 Y25.2153 
G01 X-21.9730 Y25.1061 
G01 X-21.8839 Y25.0170 
G01 X-21.7747 Y24.9540 
G01 X-21.6530 Y24.9214 
G01 X-21.5270 Y24.9214 
G01 X-21.4053 Y24.9540 
G01 X-21.2961 Y25.0170 
G01 X-21.2070 Y25.1061 
G01 X-21.2030 Y25.1132 
G01 X-20.8307 Y25.0225 
G01 X-20.3412 Y24.8671 
G01 X-19.8635 Y24.6787 
G01 X-19.3997 Y24.4581 
G01 X-18.9520 Y24.2064 
G01 X-18.5226 Y23.9248 
G01 X-18.1133 Y23.6144 
G01 X-17.7262 Y23.2769 
G01 X-17.3631 Y22.9138 
G01 X-17.0256 Y22.5267 
G00 Z2.5400  
G00 X-22.0686 Y26.2170 
G01 Z-5.0000 F400   
G01 X-22.2814 Y26.2388 F400   
G01 X-22.8600 Y26.2586 
G01 X-23.4386 Y26.2388 
G01 X-24.0145 Y26.1796 
G01 X-24.5850 Y26.0813 
G01 X-25.1475 Y25.9442 
G01 X-25.6993 Y25.7691 
G01 X-26.2379 Y25.5567 
G01 X-26.7607 Y25.3080 
G01 X-27.2653 Y25.0243 
G01 X-27.7494 Y24.7068 
G01 X-28.2107 Y24.3569 
G01 X-28.6471 Y23.9765 
G01 X-29.0565 Y23.5671 
G01 X-29.4369 Y23.1307 
G01 X-29.7868 Y22.6694 
G01 X-30.1043 Y22.1853 
G01 X-30.3880 Y21.6807 
G01 X-30.6367 Y21.1579 
G01 X-30.8490 Y20.6193 
G01 X-31.0242 Y20.0675 
G01 X-31.0642 Y19.9033 
G01 X-31.0642 Y54.8142 
G01 X-17.1588 Y54.8142 
G01 X-17.4969 Y54.7099 
G01 X-17.9726 Y54.5232 
G01 X-18.4330 Y54.3015 
G01 X-18.8756 Y54.0460 
G01 X-19.2978 Y53.7581 
G01 X-19.6973 Y53.4395 
G01 X-20.0719 Y53.0919 
G01 X-20.4195 Y52.7173 
G01 X-20.7381 Y52.3178 
G01 X-21.0260 Y51.8956 
G01 X-21.2815 Y51.4530 
G01 X-21.5032 Y50.9926 
G01 X-21.6899 Y50.5169 
G01 X-21.8405 Y50.0286 
G01 X-21.9542 Y49.5304 
G01 X-22.0304 Y49.0251 
G01 X-22.0686 Y48.5155 
G01 X-22.0686 Y48.3230 
G01 X-22.0686 Y26.2170 
G00 Z2.5400  
G00 X-24.9833 Y9.5758  
G01 Z-5.0000 F400   
G01 X-31.0642 Y9.5758  F400   
G01 X-31.0642 Y15.6567 
G01 X-31.0242 Y15.4925 
G01 X-30.8490 Y14.9407 
G01 X-30.6367 Y14.4021 
G01 X-30.3880 Y13.8793 
G01 X-30.1043 Y13.3747 
G01 X-29.7868 Y12.8906 
G01 X-29.4369 Y12.4293 
G01 X-29.0565 Y11.9929 
G01 X-28.6471 Y11.5835 
G01 X-28.2107 Y11.2031 
G01 X-27.7494 Y10.8532 
G01 X-27.2653 Y10.5357 
G01 X-26.7607 Y10.2520 
G01 X-26.2379 Y10.0033 
G01 X-25.6993 Y9.7909  
G01 X-25.1475 Y9.6158  
G01 X-24.9833 Y9.5758  
G00 Z2.5400  
G00 Z12.7000 
M05
M02
