(.../external_usr-lang-prog/pcbgcode/pcb-gcode.ulp)
(Copyright 2005 - 2012 by John Johnson)
(See readme.txt for licensing terms.)
(This file generated from the board:)
(.../Documents/eagle/wemos_ora/untitled.brd)
(Current profile is .../external_usr-lang-prog/pcbgcode/profiles/mach.pp  )
(This file generated 2017. 12. 13. 21:36)
(Settings from pcb-machine.h)
(spindle on time = 3.0000)
(  Tool Size)
(0.1778  )
(spindle speed = 30000.0000)
(tool change at 0.0000  0.0000  25.4000 )
(feed rate xy = F127   )
(feed rate z  = F127   )
(Z Axis Settings)
(  High     Up        Down     Drill)
(12.7000 	2.5400  	-0.1778 	-0.8128 )
(Settings from pcb-defaults.h)
(isolate min = 0.0254)
(isolate max = 0.5080)
(isolate step = 0.1270)
(Generated bottom outlines, )
(Unit of measure: mm)
(Metric Mode)
G21
(Absolute Coordinates)
G90
S30000
G00 Z12.7000 
G00 X0.0000  Y0.0000  
M03
G04 P3.000000
G00 Z2.5400  
G00 X-0.2698 Y14.7707 
G01 Z-0.1778 F127   
G01 X-0.2698 Y14.7707 F127   
G01 X-0.6403 Y14.4895 
G01 X-1.0331 Y14.2402 
G01 X-1.4453 Y14.0247 
G01 X-1.8741 Y13.8445 
G01 X-2.3165 Y13.7007 
G01 X-2.7057 Y13.6095 
G01 X1.6305  Y13.6095 
G01 X1.6305  Y17.9430 
G01 X1.6225  Y17.8953 
G01 X1.5068  Y17.4448 
G01 X1.3538  Y17.0055 
G01 X1.1646  Y16.5806 
G01 X0.9406  Y16.1730 
G01 X0.6832  Y15.7855 
G01 X0.3942  Y15.4210 
G01 X0.0758  Y15.0819 
G01 X-0.2698 Y14.7707 
G00 Z2.5400  
G00 X-0.3685 Y15.5356 
G01 Z-0.1778 F127   
G01 X-0.0865 Y15.8359 F127   
G01 X0.1694  Y16.1588 
G01 X0.3974  Y16.5019 
G01 X0.5959  Y16.8629 
G01 X0.7634  Y17.2393 
G01 X0.8989  Y17.6283 
G01 X1.0014  Y18.0273 
G01 X1.0701  Y18.4335 
G01 X1.1045  Y18.8440 
G01 X1.1045  Y19.2560 
G01 X1.0701  Y19.6665 
G01 X1.0014  Y20.0727 
G01 X0.8989  Y20.4717 
G01 X0.7634  Y20.8607 
G01 X0.5959  Y21.2371 
G01 X0.3974  Y21.5981 
G01 X0.1694  Y21.9412 
G01 X-0.0865 Y22.2641 
G01 X-0.3685 Y22.5644 
G01 X-0.6746 Y22.8400 
G01 X-1.0027 Y23.0891 
G01 X-1.3506 Y23.3098 
G01 X-1.7157 Y23.5007 
G01 X-2.0954 Y23.6603 
G01 X-2.4872 Y23.7876 
G01 X-2.8883 Y23.8817 
G01 X-3.2958 Y23.9419 
G01 X-3.7070 Y23.9678 
G01 X-4.1189 Y23.9591 
G01 X-4.5286 Y23.9161 
G01 X-4.9332 Y23.8389 
G01 X-5.3300 Y23.7281 
G01 X-5.7161 Y23.5845 
G01 X-6.0889 Y23.4091 
G01 X-6.4456 Y23.2031 
G01 X-6.7839 Y22.9680 
G01 X-7.1013 Y22.7054 
G01 X-7.3957 Y22.4172 
G01 X-7.6649 Y22.1053 
G01 X-7.9070 Y21.7720 
G01 X-8.1204 Y21.4197 
G01 X-8.3036 Y21.0507 
G01 X-8.4552 Y20.6676 
G01 X-8.5596 Y20.3219 
G01 X-8.5419 Y20.2709 
G01 X-8.4447 Y19.8701 
G01 X-8.3860 Y19.4619 
G01 X-8.3664 Y19.0500 
G01 X-8.3860 Y18.6381 
G01 X-8.4447 Y18.2299 
G01 X-8.5419 Y17.8291 
G01 X-8.5596 Y17.7781 
G01 X-8.4552 Y17.4324 
G01 X-8.3036 Y17.0493 
G01 X-8.1204 Y16.6803 
G01 X-7.9070 Y16.3280 
G01 X-7.6649 Y15.9947 
G01 X-7.3957 Y15.6828 
G01 X-7.1014 Y15.3946 
G01 X-6.7839 Y15.1320 
G01 X-6.4456 Y14.8969 
G01 X-6.0889 Y14.6909 
G01 X-5.7161 Y14.5155 
G01 X-5.3300 Y14.3719 
G01 X-4.9332 Y14.2611 
G01 X-4.5286 Y14.1839 
G01 X-4.1189 Y14.1409 
G01 X-3.7070 Y14.1322 
G01 X-3.2958 Y14.1581 
G01 X-2.8883 Y14.2183 
G01 X-2.4872 Y14.3124 
G01 X-2.0954 Y14.4397 
G01 X-1.7157 Y14.5993 
G01 X-1.3506 Y14.7902 
G01 X-1.0027 Y15.0109 
G01 X-0.6746 Y15.2600 
G01 X-0.3685 Y15.5356 
G00 Z2.5400  
G00 X-4.9029 Y13.6095 
G01 Z-0.1778 F127   
G01 X-5.0782 Y13.6429 F127   
G01 X-5.5262 Y13.7680 
G01 X-5.9622 Y13.9301 
G01 X-6.3831 Y14.1282 
G01 X-6.7859 Y14.3607 
G01 X-7.1678 Y14.6262 
G01 X-7.5262 Y14.9227 
G01 X-7.8586 Y15.2481 
G01 X-8.1625 Y15.6002 
G01 X-8.4359 Y15.9765 
G01 X-8.6769 Y16.3744 
G01 X-8.8837 Y16.7910 
G01 X-8.9334 Y16.9166 
G01 X-9.0543 Y16.7071 
G01 X-9.2936 Y16.3712 
G01 X-9.5636 Y16.0595 
G01 X-9.8621 Y15.7749 
G01 X-10.1863 Y15.5200 
G01 X-10.5332 Y15.2970 
G01 X-10.8998 Y15.1080 
G01 X-11.2826 Y14.9548 
G01 X-11.6783 Y14.8386 
G01 X-12.0833 Y14.7605 
G01 X-12.4938 Y14.7213 
G01 X-12.9062 Y14.7213 
G01 X-13.3167 Y14.7605 
G01 X-13.7217 Y14.8386 
G01 X-14.1174 Y14.9548 
G01 X-14.5002 Y15.1080 
G01 X-14.8668 Y15.2970 
G01 X-15.2137 Y15.5200 
G01 X-15.5379 Y15.7749 
G01 X-15.8364 Y16.0595 
G01 X-16.1064 Y16.3712 
G01 X-16.3456 Y16.7071 
G01 X-16.5518 Y17.0642 
G01 X-16.7232 Y17.4394 
G01 X-16.8580 Y17.8291 
G01 X-16.9203 Y18.0857 
G01 X-16.9203 Y13.6095 
G01 X-4.9029 Y13.6095 
G00 Z2.5400  
G00 X-10.0232 Y16.4977 
G01 Z-0.1778 F127   
G01 X-9.7927 Y16.7637 F127   
G01 X-9.5885 Y17.0504 
G01 X-9.4126 Y17.3552 
G01 X-9.2663 Y17.6754 
G01 X-9.2195 Y17.8107 
G01 X-9.2861 Y18.1238 
G01 X-9.3444 Y18.5853 
G01 X-9.3638 Y19.0500 
G01 X-9.3444 Y19.5147 
G01 X-9.2861 Y19.9762 
G01 X-9.2195 Y20.2893 
G01 X-9.2663 Y20.4246 
G01 X-9.4126 Y20.7448 
G01 X-9.5885 Y21.0496 
G01 X-9.7927 Y21.3363 
G01 X-10.0232 Y21.6023 
G01 X-10.2779 Y21.8452 
G01 X-10.5546 Y22.0628 
G01 X-10.8507 Y22.2531 
G01 X-11.1635 Y22.4144 
G01 X-11.4903 Y22.5452 
G01 X-11.8280 Y22.6443 
G01 X-12.1736 Y22.7109 
G01 X-12.5240 Y22.7444 
G01 X-12.8760 Y22.7444 
G01 X-13.2264 Y22.7109 
G01 X-13.5720 Y22.6443 
G01 X-13.9097 Y22.5452 
G01 X-14.2364 Y22.4144 
G01 X-14.5493 Y22.2531 
G01 X-14.8454 Y22.0628 
G01 X-15.1221 Y21.8452 
G01 X-15.3768 Y21.6023 
G01 X-15.6073 Y21.3363 
G01 X-15.8115 Y21.0496 
G01 X-15.9874 Y20.7448 
G01 X-16.1337 Y20.4246 
G01 X-16.2488 Y20.0920 
G01 X-16.3318 Y19.7500 
G01 X-16.3818 Y19.4016 
G01 X-16.3986 Y19.0500 
G01 X-16.3818 Y18.6984 
G01 X-16.3318 Y18.3500 
G01 X-16.2488 Y18.0080 
G01 X-16.1337 Y17.6754 
G01 X-15.9874 Y17.3552 
G01 X-15.8115 Y17.0504 
G01 X-15.6073 Y16.7637 
G01 X-15.3768 Y16.4977 
G01 X-15.1221 Y16.2548 
G01 X-14.8454 Y16.0372 
G01 X-14.5493 Y15.8469 
G01 X-14.2364 Y15.6856 
G01 X-13.9097 Y15.5548 
G01 X-13.5720 Y15.4557 
G01 X-13.2264 Y15.3891 
G01 X-12.8760 Y15.3556 
G01 X-12.5240 Y15.3556 
G01 X-12.1736 Y15.3891 
G01 X-11.8280 Y15.4557 
G01 X-11.4903 Y15.5548 
G01 X-11.1636 Y15.6856 
G01 X-10.8507 Y15.8469 
G01 X-10.5546 Y16.0372 
G01 X-10.2779 Y16.2548 
G01 X-10.0232 Y16.4977 
G00 Z2.5400  
G00 X-8.9334 Y21.1834 
G01 Z-0.1778 F127   
G01 X-8.8837 Y21.3089 F127   
G01 X-8.6769 Y21.7256 
G01 X-8.4359 Y22.1234 
G01 X-8.1625 Y22.4998 
G01 X-7.8586 Y22.8519 
G01 X-7.5262 Y23.1773 
G01 X-7.1678 Y23.4738 
G01 X-6.7859 Y23.7393 
G01 X-6.3831 Y23.9718 
G01 X-5.9622 Y24.1699 
G01 X-5.5262 Y24.3320 
G01 X-5.0782 Y24.4571 
G01 X-4.6213 Y24.5443 
G01 X-4.1587 Y24.5929 
G01 X-3.6937 Y24.6026 
G01 X-3.2295 Y24.5734 
G01 X-2.8575 Y24.5185 
G01 X-2.8575 Y43.1800 
G01 X-2.8612 Y43.3413 
G01 X-2.8910 Y43.6625 
G01 X-2.9503 Y43.9796 
G01 X-3.0385 Y44.2899 
G01 X-3.1551 Y44.5907 
G01 X-3.2989 Y44.8795 
G01 X-3.4687 Y45.1537 
G01 X-3.6631 Y45.4112 
G01 X-3.8804 Y45.6496 
G01 X-4.1188 Y45.8669 
G01 X-4.3763 Y46.0613 
G01 X-4.6505 Y46.2311 
G01 X-4.9393 Y46.3749 
G01 X-5.2401 Y46.4915 
G01 X-5.5504 Y46.5797 
G01 X-5.8675 Y46.6390 
G01 X-6.1887 Y46.6688 
G01 X-6.3500 Y46.6725 
G01 X-7.6200 Y46.6725 
G01 X-7.7813 Y46.6688 
G01 X-8.1025 Y46.6390 
G01 X-8.4196 Y46.5797 
G01 X-8.7299 Y46.4915 
G01 X-9.0307 Y46.3749 
G01 X-9.3195 Y46.2311 
G01 X-9.5937 Y46.0613 
G01 X-9.8512 Y45.8669 
G01 X-10.0896 Y45.6496 
G01 X-10.3069 Y45.4112 
G01 X-10.5013 Y45.1537 
G01 X-10.6711 Y44.8795 
G01 X-10.8149 Y44.5907 
G01 X-10.9314 Y44.2899 
G01 X-11.0197 Y43.9796 
G01 X-11.0790 Y43.6625 
G01 X-11.1088 Y43.3413 
G01 X-11.1125 Y43.1800 
G01 X-11.1125 Y23.0771 
G01 X-10.8998 Y22.9920 
G01 X-10.5332 Y22.8030 
G01 X-10.1863 Y22.5800 
G01 X-9.8621 Y22.3251 
G01 X-9.5636 Y22.0405 
G01 X-9.2936 Y21.7288 
G01 X-9.0543 Y21.3929 
G01 X-8.9334 Y21.1834 
G00 Z2.5400  
G00 X-2.2225 Y24.3687 
G01 Z-0.1778 F127   
G01 X-1.8741 Y24.2555 F127   
G01 X-1.4453 Y24.0753 
G01 X-1.0331 Y23.8598 
G01 X-0.6403 Y23.6105 
G01 X-0.2698 Y23.3293 
G01 X0.0758  Y23.0181 
G01 X0.3942  Y22.6790 
G01 X0.6832  Y22.3145 
G01 X0.9406  Y21.9270 
G01 X1.1646  Y21.5194 
G01 X1.3538  Y21.0945 
G01 X1.5068  Y20.6552 
G01 X1.6225  Y20.2047 
G01 X1.6305  Y20.1570 
G01 X1.6305  Y47.1942 
G01 X-5.3760 Y47.1942 
G01 X-5.0369 Y47.0977 
G01 X-4.6810 Y46.9598 
G01 X-4.3394 Y46.7897 
G01 X-4.0149 Y46.5888 
G01 X-3.7103 Y46.3588 
G01 X-3.4283 Y46.1017 
G01 X-3.1712 Y45.8197 
G01 X-2.9412 Y45.5151 
G01 X-2.7403 Y45.1906 
G01 X-2.5702 Y44.8490 
G01 X-2.4323 Y44.4931 
G01 X-2.3278 Y44.1260 
G01 X-2.2577 Y43.7508 
G01 X-2.2225 Y43.3708 
G01 X-2.2225 Y43.2218 
G01 X-2.2225 Y24.3687 
G00 Z2.5400  
G00 X-0.4573 Y15.6264 
G01 Z-0.1778 F127   
G01 X-0.1826 Y15.9189 F127   
G01 X0.0667  Y16.2334 
G01 X0.2888  Y16.5677 
G01 X0.4821  Y16.9194 
G01 X0.6453  Y17.2860 
G01 X0.7773  Y17.6650 
G01 X0.8771  Y18.0537 
G01 X0.9441  Y18.4494 
G01 X0.9776  Y18.8493 
G01 X0.9776  Y19.2507 
G01 X0.9441  Y19.6506 
G01 X0.8771  Y20.0463 
G01 X0.7773  Y20.4350 
G01 X0.6453  Y20.8140 
G01 X0.4821  Y21.1806 
G01 X0.2888  Y21.5323 
G01 X0.0667  Y21.8666 
G01 X-0.1826 Y22.1811 
G01 X-0.4573 Y22.4736 
G01 X-0.7556 Y22.7422 
G01 X-1.0752 Y22.9848 
G01 X-1.4141 Y23.1999 
G01 X-1.7697 Y23.3858 
G01 X-2.1397 Y23.5413 
G01 X-2.5214 Y23.6653 
G01 X-2.9121 Y23.7570 
G01 X-3.3091 Y23.8156 
G01 X-3.7096 Y23.8408 
G01 X-4.1109 Y23.8324 
G01 X-4.5100 Y23.7904 
G01 X-4.9042 Y23.7152 
G01 X-5.2908 Y23.6073 
G01 X-5.6669 Y23.4674 
G01 X-6.0300 Y23.2965 
G01 X-6.3776 Y23.0959 
G01 X-6.7071 Y22.8668 
G01 X-7.0164 Y22.6110 
G01 X-7.3031 Y22.3302 
G01 X-7.5653 Y22.0264 
G01 X-7.8012 Y21.7018 
G01 X-8.0091 Y21.3585 
G01 X-8.1876 Y20.9990 
G01 X-8.3353 Y20.6259 
G01 X-8.4283 Y20.3177 
G01 X-8.3614 Y20.0862 
G01 X-8.2835 Y19.6754 
G01 X-8.2443 Y19.2591 
G01 X-8.2443 Y18.8409 
G01 X-8.2835 Y18.4246 
G01 X-8.3614 Y18.0138 
G01 X-8.4283 Y17.7823 
G01 X-8.3353 Y17.4741 
G01 X-8.1876 Y17.1010 
G01 X-8.0091 Y16.7415 
G01 X-7.8012 Y16.3982 
G01 X-7.5653 Y16.0736 
G01 X-7.3031 Y15.7698 
G01 X-7.0164 Y15.4890 
G01 X-6.7071 Y15.2332 
G01 X-6.3776 Y15.0041 
G01 X-6.0300 Y14.8034 
G01 X-5.6669 Y14.6326 
G01 X-5.2908 Y14.4927 
G01 X-4.9042 Y14.3848 
G01 X-4.5100 Y14.3096 
G01 X-4.1109 Y14.2676 
G01 X-3.7096 Y14.2592 
G01 X-3.3091 Y14.2844 
G01 X-2.9121 Y14.3430 
G01 X-2.5214 Y14.4347 
G01 X-2.1397 Y14.5587 
G01 X-1.7697 Y14.7142 
G01 X-1.4141 Y14.9001 
G01 X-1.0752 Y15.1152 
G01 X-0.7556 Y15.3578 
G01 X-0.4573 Y15.6264 
G00 Z2.5400  
G00 X-5.4303 Y13.6095 
G01 Z-0.1778 F127   
G01 X-5.5655 Y13.6472 F127   
G01 X-6.0114 Y13.8130 
G01 X-6.4419 Y14.0156 
G01 X-6.8539 Y14.2535 
G01 X-7.2446 Y14.5250 
G01 X-7.6112 Y14.8283 
G01 X-7.9512 Y15.1612 
G01 X-8.2620 Y15.5214 
G01 X-8.5417 Y15.9063 
G01 X-8.7882 Y16.3132 
G01 X-8.9511 Y16.6416 
G01 X-9.0428 Y16.4963 
G01 X-9.2980 Y16.1650 
G01 X-9.5831 Y15.8591 
G01 X-9.8956 Y15.5813 
G01 X-10.2327 Y15.3339 
G01 X-10.5915 Y15.1192 
G01 X-10.9689 Y14.9390 
G01 X-11.3614 Y14.7950 
G01 X-11.7658 Y14.6883 
G01 X-12.1783 Y14.6200 
G01 X-12.5954 Y14.5906 
G01 X-13.0135 Y14.6004 
G01 X-13.4288 Y14.6493 
G01 X-13.8376 Y14.7369 
G01 X-14.2365 Y14.8624 
G01 X-14.6219 Y15.0247 
G01 X-14.9904 Y15.2223 
G01 X-15.3388 Y15.4536 
G01 X-15.6639 Y15.7165 
G01 X-15.9631 Y16.0087 
G01 X-16.2335 Y16.3277 
G01 X-16.4729 Y16.6705 
G01 X-16.6791 Y17.0343 
G01 X-16.8504 Y17.4157 
G01 X-16.9203 Y17.6209 
G01 X-16.9203 Y13.6095 
G01 X-5.4303 Y13.6095 
G00 Z2.5400  
G00 X-10.2043 Y16.4951 
G01 Z-0.1778 F127   
G01 X-9.9760 Y16.7400 F127   
G01 X-9.7717 Y17.0052 
G01 X-9.5930 Y17.2884 
G01 X-9.4417 Y17.5871 
G01 X-9.3508 Y17.8181 
G01 X-9.4113 Y18.1026 
G01 X-9.4709 Y18.5746 
G01 X-9.4908 Y19.0500 
G01 X-9.4709 Y19.5254 
G01 X-9.4113 Y19.9974 
G01 X-9.3508 Y20.2819 
G01 X-9.4417 Y20.5129 
G01 X-9.5930 Y20.8116 
G01 X-9.7717 Y21.0948 
G01 X-9.9760 Y21.3600 
G01 X-10.2043 Y21.6049 
G01 X-10.4545 Y21.8274 
G01 X-10.7244 Y22.0255 
G01 X-11.0117 Y22.1974 
G01 X-11.3139 Y22.3417 
G01 X-11.5873 Y22.4420 
G01 X-11.6016 Y22.4458 
G01 X-11.6083 Y22.4497 
G01 X-11.6282 Y22.4570 
G01 X-11.9520 Y22.5424 
G01 X-12.2823 Y22.5971 
G01 X-12.6163 Y22.6206 
G01 X-12.9510 Y22.6128 
G01 X-13.2835 Y22.5736 
G01 X-13.6109 Y22.5035 
G01 X-13.9303 Y22.4030 
G01 X-14.2389 Y22.2731 
G01 X-14.5339 Y22.1148 
G01 X-14.8129 Y21.9296 
G01 X-15.0732 Y21.7191 
G01 X-15.3127 Y21.4851 
G01 X-15.5293 Y21.2298 
G01 X-15.7210 Y20.9553 
G01 X-15.8861 Y20.6640 
G01 X-16.0232 Y20.3586 
G01 X-16.1312 Y20.0416 
G01 X-16.2090 Y19.7160 
G01 X-16.2559 Y19.3845 
G01 X-16.2716 Y19.0500 
G01 X-16.2559 Y18.7156 
G01 X-16.2090 Y18.3840 
G01 X-16.1312 Y18.0584 
G01 X-16.0232 Y17.7414 
G01 X-15.8861 Y17.4360 
G01 X-15.7210 Y17.1447 
G01 X-15.5293 Y16.8702 
G01 X-15.3127 Y16.6149 
G01 X-15.0732 Y16.3809 
G01 X-14.8129 Y16.1704 
G01 X-14.5339 Y15.9852 
G01 X-14.2389 Y15.8269 
G01 X-13.9303 Y15.6970 
G01 X-13.6109 Y15.5965 
G01 X-13.2835 Y15.5264 
G01 X-12.9510 Y15.4872 
G01 X-12.6163 Y15.4794 
G01 X-12.2823 Y15.5029 
G01 X-11.9520 Y15.5576 
G01 X-11.6282 Y15.6430 
G01 X-11.3139 Y15.7583 
G01 X-11.0117 Y15.9026 
G01 X-10.7244 Y16.0745 
G01 X-10.4545 Y16.2726 
G01 X-10.2043 Y16.4951 
G00 Z2.5400  
G00 X-8.9511 Y21.4584 
G01 Z-0.1778 F127   
G01 X-8.7882 Y21.7868 F127   
G01 X-8.5417 Y22.1937 
G01 X-8.2620 Y22.5786 
G01 X-7.9512 Y22.9388 
G01 X-7.6112 Y23.2717 
G01 X-7.2446 Y23.5750 
G01 X-6.8539 Y23.8465 
G01 X-6.4419 Y24.0844 
G01 X-6.0114 Y24.2870 
G01 X-5.5655 Y24.4528 
G01 X-5.1072 Y24.5807 
G01 X-4.6399 Y24.6699 
G01 X-4.1667 Y24.7196 
G01 X-3.6910 Y24.7296 
G01 X-3.2162 Y24.6997 
G01 X-2.9845 Y24.6655 
G01 X-2.9845 Y43.1800 
G01 X-2.9881 Y43.3354 
G01 X-3.0168 Y43.6450 
G01 X-3.0739 Y43.9505 
G01 X-3.1590 Y44.2495 
G01 X-3.2713 Y44.5394 
G01 X-3.4098 Y44.8177 
G01 X-3.5735 Y45.0820 
G01 X-3.7608 Y45.3300 
G01 X-3.9702 Y45.5598 
G01 X-4.2000 Y45.7692 
G01 X-4.4480 Y45.9565 
G01 X-4.7123 Y46.1202 
G01 X-4.9906 Y46.2587 
G01 X-5.2805 Y46.3710 
G01 X-5.5795 Y46.4561 
G01 X-5.8850 Y46.5132 
G01 X-6.1946 Y46.5419 
G01 X-6.3500 Y46.5455 
G01 X-7.6200 Y46.5455 
G01 X-7.7754 Y46.5419 
G01 X-8.0850 Y46.5132 
G01 X-8.3905 Y46.4561 
G01 X-8.6895 Y46.3710 
G01 X-8.9794 Y46.2587 
G01 X-9.2577 Y46.1202 
G01 X-9.5220 Y45.9565 
G01 X-9.7700 Y45.7692 
G01 X-9.9998 Y45.5598 
G01 X-10.2092 Y45.3300 
G01 X-10.3965 Y45.0820 
G01 X-10.5602 Y44.8177 
G01 X-10.6987 Y44.5394 
G01 X-10.8110 Y44.2495 
G01 X-10.8961 Y43.9505 
G01 X-10.9532 Y43.6450 
G01 X-10.9819 Y43.3354 
G01 X-10.9855 Y43.1800 
G01 X-10.9855 Y23.1671 
G01 X-10.9689 Y23.1610 
G01 X-10.5915 Y22.9808 
G01 X-10.2327 Y22.7661 
G01 X-9.8956 Y22.5187 
G01 X-9.5831 Y22.2409 
G01 X-9.2980 Y21.9350 
G01 X-9.0428 Y21.6037 
G01 X-8.9511 Y21.4584 
G00 Z2.5400  
G00 X-11.8745 Y23.4297 
G01 Z-0.1778 F127   
G01 X-11.8745 Y43.3767 F127   
G01 X-11.8382 Y43.7684 
G01 X-11.7659 Y44.1551 
G01 X-11.6583 Y44.5335 
G01 X-11.5161 Y44.9003 
G01 X-11.3408 Y45.2525 
G01 X-11.1337 Y45.5869 
G01 X-10.8966 Y45.9009 
G01 X-10.6316 Y46.1916 
G01 X-10.3409 Y46.4566 
G01 X-10.0269 Y46.6937 
G01 X-9.6925 Y46.9008 
G01 X-9.3403 Y47.0761 
G01 X-9.0356 Y47.1942 
G01 X-16.9203 Y47.1942 
G01 X-16.9203 Y20.4791 
G01 X-16.8504 Y20.6843 
G01 X-16.6791 Y21.0657 
G01 X-16.4729 Y21.4295 
G01 X-16.2335 Y21.7723 
G01 X-15.9631 Y22.0913 
G01 X-15.6639 Y22.3835 
G01 X-15.3388 Y22.6464 
G01 X-14.9904 Y22.8777 
G01 X-14.6219 Y23.0753 
G01 X-14.2365 Y23.2376 
G01 X-13.8376 Y23.3631 
G01 X-13.4288 Y23.4507 
G01 X-13.0135 Y23.4996 
G01 X-12.5954 Y23.5094 
G01 X-12.1783 Y23.4800 
G01 X-11.8745 Y23.4297 
G00 Z2.5400  
G00 X-2.0955 Y24.4609 
G01 Z-0.1778 F127   
G01 X-1.8298 Y24.3745 F127   
G01 X-1.3912 Y24.1902 
G01 X-0.9696 Y23.9698 
G01 X-0.5679 Y23.7148 
G01 X-0.1889 Y23.4272 
G01 X0.1647  Y23.1088 
G01 X0.4904  Y22.7620 
G01 X0.7859  Y22.3891 
G01 X1.0492  Y21.9928 
G01 X1.2784  Y21.5759 
G01 X1.4719  Y21.1413 
G01 X1.6284  Y20.6919 
G01 X1.6305  Y20.6835 
G01 X1.6305  Y47.1942 
G01 X-4.9344 Y47.1942 
G01 X-4.6297 Y47.0761 
G01 X-4.2775 Y46.9008 
G01 X-3.9431 Y46.6937 
G01 X-3.6291 Y46.4566 
G01 X-3.3384 Y46.1916 
G01 X-3.0734 Y45.9009 
G01 X-2.8363 Y45.5869 
G01 X-2.6292 Y45.2525 
G01 X-2.4539 Y44.9003 
G01 X-2.3117 Y44.5335 
G01 X-2.2041 Y44.1551 
G01 X-2.1318 Y43.7684 
G01 X-2.0955 Y43.3767 
G01 X-2.0955 Y43.2385 
G01 X-2.0955 Y24.4609 
G00 Z2.5400  
G00 X-0.2427 Y14.4668 
G01 Z-0.1778 F127   
G01 X-0.2427 Y14.4668 F127   
G01 X-0.6334 Y14.1879 
G01 X-1.0458 Y13.9422 
G01 X-1.4770 Y13.7313 
G01 X-1.7894 Y13.6095 
G01 X1.6305  Y13.6095 
G01 X1.6305  Y17.0294 
G01 X1.5087  Y16.7170 
G01 X1.2978  Y16.2858 
G01 X1.0521  Y15.8734 
G01 X0.7732  Y15.4827 
G01 X0.4630  Y15.1165 
G01 X0.1235  Y14.7770 
G01 X-0.2427 Y14.4668 
G00 Z2.5400  
G00 X-0.6506 Y15.6180 
G01 Z-0.1778 F127   
G01 X-0.3780 Y15.8906 F127   
G01 X-0.1288 Y16.1848 
G01 X0.0953  Y16.4986 
G01 X0.2926  Y16.8298 
G01 X0.4619  Y17.1762 
G01 X0.6021  Y17.5353 
G01 X0.7121  Y17.9048 
G01 X0.7912  Y18.2822 
G01 X0.8389  Y18.6648 
G01 X0.8548  Y19.0500 
G01 X0.8389  Y19.4352 
G01 X0.7912  Y19.8178 
G01 X0.7121  Y20.1952 
G01 X0.6021  Y20.5647 
G01 X0.4619  Y20.9238 
G01 X0.2926  Y21.2702 
G01 X0.0953  Y21.6014 
G01 X-0.1288 Y21.9152 
G01 X-0.3780 Y22.2094 
G01 X-0.6506 Y22.4820 
G01 X-0.9448 Y22.7312 
G01 X-1.2586 Y22.9552 
G01 X-1.5898 Y23.1526 
G01 X-1.9362 Y23.3219 
G01 X-2.2953 Y23.4621 
G01 X-2.6545 Y23.5690 
G01 X-2.6701 Y23.5732 
G01 X-3.0422 Y23.6512 
G01 X-3.4248 Y23.6989 
G01 X-3.8100 Y23.7148 
G01 X-4.1952 Y23.6989 
G01 X-4.5778 Y23.6512 
G01 X-4.9551 Y23.5721 
G01 X-5.3247 Y23.4621 
G01 X-5.6838 Y23.3219 
G01 X-6.0302 Y23.1526 
G01 X-6.3614 Y22.9552 
G01 X-6.6752 Y22.7312 
G01 X-6.9694 Y22.4820 
G01 X-7.2420 Y22.2094 
G01 X-7.4912 Y21.9152 
G01 X-7.7153 Y21.6014 
G01 X-7.9126 Y21.2702 
G01 X-8.0819 Y20.9238 
G01 X-8.2221 Y20.5647 
G01 X-8.2937 Y20.3240 
G01 X-8.2875 Y20.3055 
G01 X-8.1905 Y19.8930 
G01 X-8.1320 Y19.4733 
G01 X-8.1124 Y19.0500 
G01 X-8.1320 Y18.6267 
G01 X-8.1905 Y18.2070 
G01 X-8.2875 Y17.7945 
G01 X-8.2937 Y17.7760 
G01 X-8.2221 Y17.5353 
G01 X-8.0819 Y17.1762 
G01 X-7.9126 Y16.8298 
G01 X-7.7153 Y16.4986 
G01 X-7.4912 Y16.1848 
G01 X-7.2420 Y15.8906 
G01 X-6.9694 Y15.6180 
G01 X-6.6752 Y15.3688 
G01 X-6.3614 Y15.1447 
G01 X-6.0302 Y14.9474 
G01 X-5.6838 Y14.7781 
G01 X-5.3247 Y14.6379 
G01 X-4.9552 Y14.5279 
G01 X-4.5778 Y14.4488 
G01 X-4.1952 Y14.4011 
G01 X-3.8100 Y14.3852 
G01 X-3.4248 Y14.4011 
G01 X-3.0422 Y14.4488 
G01 X-2.6648 Y14.5279 
G01 X-2.2953 Y14.6379 
G01 X-1.9362 Y14.7781 
G01 X-1.5898 Y14.9474 
G01 X-1.2586 Y15.1447 
G01 X-0.9448 Y15.3688 
G01 X-0.6506 Y15.6180 
G00 Z2.5400  
G00 X1.6305  Y21.0706 
G01 Z-0.1778 F127   
G01 X1.6305  Y47.1942 F127   
G01 X-4.5829 Y47.1942 
G01 X-4.5783 Y47.1924 
G01 X-4.2157 Y47.0119 
G01 X-3.8712 Y46.7986 
G01 X-3.5479 Y46.5544 
G01 X-3.2485 Y46.2815 
G01 X-2.9756 Y45.9821 
G01 X-2.7314 Y45.6588 
G01 X-2.5181 Y45.3143 
G01 X-2.3375 Y44.9517 
G01 X-2.1912 Y44.5739 
G01 X-2.0803 Y44.1842 
G01 X-2.0059 Y43.7860 
G01 X-1.9685 Y43.3826 
G01 X-1.9685 Y43.2552 
G01 X-1.9685 Y24.5563 
G01 X-1.9242 Y24.5432 
G01 X-1.4770 Y24.3687 
G01 X-1.0458 Y24.1578 
G01 X-0.6334 Y23.9121 
G01 X-0.2427 Y23.6332 
G01 X0.1235  Y23.3230 
G01 X0.4630  Y22.9835 
G01 X0.7732  Y22.6172 
G01 X1.0521  Y22.2266 
G01 X1.2978  Y21.8142 
G01 X1.5087  Y21.3830 
G01 X1.6305  Y21.0706 
G00 Z2.5400  
G00 X-3.1115 Y24.8107 
G01 Z-0.1778 F127   
G01 X-3.1115 Y43.1800 F127   
G01 X-3.1150 Y43.3296 
G01 X-3.1426 Y43.6274 
G01 X-3.1975 Y43.9215 
G01 X-3.2794 Y44.2092 
G01 X-3.3874 Y44.4881 
G01 X-3.5208 Y44.7559 
G01 X-3.6782 Y45.0102 
G01 X-3.8585 Y45.2489 
G01 X-4.0600 Y45.4700 
G01 X-4.2811 Y45.6715 
G01 X-4.5198 Y45.8518 
G01 X-4.7741 Y46.0092 
G01 X-5.0419 Y46.1426 
G01 X-5.3208 Y46.2506 
G01 X-5.6085 Y46.3325 
G01 X-5.9026 Y46.3874 
G01 X-6.2004 Y46.4150 
G01 X-6.3500 Y46.4185 
G01 X-7.6200 Y46.4185 
G01 X-7.7696 Y46.4150 
G01 X-8.0674 Y46.3874 
G01 X-8.3615 Y46.3325 
G01 X-8.6492 Y46.2506 
G01 X-8.9281 Y46.1426 
G01 X-9.1959 Y46.0092 
G01 X-9.4502 Y45.8518 
G01 X-9.6889 Y45.6715 
G01 X-9.9100 Y45.4700 
G01 X-10.1115 Y45.2489 
G01 X-10.2918 Y45.0102 
G01 X-10.4492 Y44.7559 
G01 X-10.5826 Y44.4881 
G01 X-10.6906 Y44.2092 
G01 X-10.7725 Y43.9215 
G01 X-10.8274 Y43.6274 
G01 X-10.8550 Y43.3296 
G01 X-10.8585 Y43.1800 
G01 X-10.8585 Y23.2464 
G01 X-10.6551 Y23.1566 
G01 X-10.2849 Y22.9504 
G01 X-9.9354 Y22.7110 
G01 X-9.6094 Y22.4403 
G01 X-9.3097 Y22.1406 
G01 X-9.0390 Y21.8146 
G01 X-8.9682 Y21.7112 
G01 X-8.9178 Y21.8142 
G01 X-8.6721 Y22.2266 
G01 X-8.3932 Y22.6172 
G01 X-8.0830 Y22.9835 
G01 X-7.7435 Y23.3230 
G01 X-7.3773 Y23.6332 
G01 X-6.9866 Y23.9121 
G01 X-6.5742 Y24.1578 
G01 X-6.1430 Y24.3687 
G01 X-5.6958 Y24.5432 
G01 X-5.2357 Y24.6801 
G01 X-4.7659 Y24.7786 
G01 X-4.2896 Y24.8380 
G01 X-3.8100 Y24.8578 
G01 X-3.3304 Y24.8380 
G01 X-3.1115 Y24.8107 
G00 Z2.5400  
G00 X-12.0015 Y23.5796 
G01 Z-0.1778 F127   
G01 X-12.0015 Y43.3826 F127   
G01 X-11.9641 Y43.7860 
G01 X-11.8897 Y44.1842 
G01 X-11.7788 Y44.5739 
G01 X-11.6324 Y44.9517 
G01 X-11.4519 Y45.3143 
G01 X-11.2386 Y45.6588 
G01 X-10.9944 Y45.9821 
G01 X-10.7215 Y46.2815 
G01 X-10.4221 Y46.5544 
G01 X-10.0988 Y46.7986 
G01 X-9.7543 Y47.0119 
G01 X-9.3917 Y47.1924 
G01 X-9.3871 Y47.1942 
G01 X-16.9203 Y47.1942 
G01 X-16.9203 Y20.8375 
G01 X-16.8066 Y21.0949 
G01 X-16.6004 Y21.4651 
G01 X-16.3610 Y21.8146 
G01 X-16.0903 Y22.1406 
G01 X-15.7906 Y22.4403 
G01 X-15.4646 Y22.7110 
G01 X-15.1151 Y22.9504 
G01 X-14.7449 Y23.1566 
G01 X-14.3572 Y23.3278 
G01 X-13.9555 Y23.4625 
G01 X-13.5430 Y23.5595 
G01 X-13.1233 Y23.6180 
G01 X-12.7000 Y23.6376 
G01 X-12.2767 Y23.6180 
G01 X-12.0015 Y23.5796 
G00 Z2.5400  
G00 X-12.0671 Y22.4359 
G01 Z-0.1778 F127   
G01 X-12.3822 Y22.4799 F127   
G01 X-12.7000 Y22.4946 
G01 X-13.0178 Y22.4799 
G01 X-13.3329 Y22.4359 
G01 X-13.6427 Y22.3631 
G01 X-13.9443 Y22.2620 
G01 X-14.2354 Y22.1335 
G01 X-14.5133 Y21.9786 
G01 X-14.7758 Y21.7988 
G01 X-15.0206 Y21.5956 
G01 X-15.2456 Y21.3706 
G01 X-15.4488 Y21.1258 
G01 X-15.6287 Y20.8633 
G01 X-15.7835 Y20.5854 
G01 X-15.9120 Y20.2943 
G01 X-16.0131 Y19.9927 
G01 X-16.0859 Y19.6829 
G01 X-16.1299 Y19.3678 
G01 X-16.1446 Y19.0500 
G01 X-16.1299 Y18.7322 
G01 X-16.0859 Y18.4171 
G01 X-16.0131 Y18.1073 
G01 X-15.9120 Y17.8057 
G01 X-15.7835 Y17.5146 
G01 X-15.6287 Y17.2367 
G01 X-15.4488 Y16.9742 
G01 X-15.2456 Y16.7294 
G01 X-15.0206 Y16.5044 
G01 X-14.7758 Y16.3012 
G01 X-14.5133 Y16.1213 
G01 X-14.2354 Y15.9665 
G01 X-13.9443 Y15.8380 
G01 X-13.6427 Y15.7369 
G01 X-13.3329 Y15.6641 
G01 X-13.0178 Y15.6201 
G01 X-12.7000 Y15.6054 
G01 X-12.3822 Y15.6201 
G01 X-12.0671 Y15.6641 
G01 X-11.7573 Y15.7369 
G01 X-11.4557 Y15.8380 
G01 X-11.1646 Y15.9665 
G01 X-10.8867 Y16.1213 
G01 X-10.6242 Y16.3012 
G01 X-10.3794 Y16.5044 
G01 X-10.1544 Y16.7294 
G01 X-9.9512 Y16.9742 
G01 X-9.7713 Y17.2367 
G01 X-9.6165 Y17.5146 
G01 X-9.4880 Y17.8057 
G01 X-9.4819 Y17.8238 
G01 X-9.5386 Y18.0941 
G01 X-9.5980 Y18.5704 
G01 X-9.6178 Y19.0500 
G01 X-9.5980 Y19.5296 
G01 X-9.5386 Y20.0059 
G01 X-9.4819 Y20.2762 
G01 X-9.4880 Y20.2943 
G01 X-9.6165 Y20.5854 
G01 X-9.7713 Y20.8633 
G01 X-9.9512 Y21.1258 
G01 X-10.1544 Y21.3706 
G01 X-10.3794 Y21.5956 
G01 X-10.6242 Y21.7988 
G01 X-10.8867 Y21.9786 
G01 X-11.1646 Y22.1335 
G01 X-11.4557 Y22.2620 
G01 X-11.7573 Y22.3631 
G01 X-12.0671 Y22.4359 
G00 Z2.5400  
G00 X-0.3020 Y14.2629 
G01 Z-0.1778 F127   
G01 X-0.3020 Y14.2629 F127   
G01 X-0.7039 Y13.9929 
G01 X-1.1264 Y13.7565 
G01 X-1.4485 Y13.6095 
G01 X1.6305  Y13.6095 
G01 X1.6305  Y16.6911 
G01 X1.5371  Y16.4750 
G01 X1.3094  Y16.0477 
G01 X1.0477  Y15.6404 
G01 X0.7536  Y15.2558 
G01 X0.4292  Y14.8965 
G01 X0.0765  Y14.5647 
G01 X-0.3020 Y14.2629 
G00 Z2.5400  
G00 X-0.5687 Y15.8742 
G01 Z-0.1778 F127   
G01 X-0.3206 Y16.1489 F127   
G01 X-0.0958 Y16.4430 
G01 X0.1044  Y16.7544 
G01 X0.2785  Y17.0811 
G01 X0.4253  Y17.4209 
G01 X0.5440  Y17.7715 
G01 X0.6337  Y18.1307 
G01 X0.6939  Y18.4960 
G01 X0.7241  Y18.8649 
G01 X0.7241  Y19.2351 
G01 X0.6939  Y19.6040 
G01 X0.6337  Y19.9693 
G01 X0.5440  Y20.3285 
G01 X0.4253  Y20.6791 
G01 X0.2785  Y21.0189 
G01 X0.1044  Y21.3456 
G01 X-0.0958 Y21.6570 
G01 X-0.3206 Y21.9511 
G01 X-0.5687 Y22.2258 
G01 X-0.8383 Y22.4795 
G01 X-1.1278 Y22.7103 
G01 X-1.4350 Y22.9167 
G01 X-1.7581 Y23.0974 
G01 X-2.0948 Y23.2512 
G01 X-2.4430 Y23.3770 
G01 X-2.7384 Y23.4573 
G01 X-2.7437 Y23.4583 
G01 X-2.7464 Y23.4595 
G01 X-2.8002 Y23.4741 
G01 X-3.1642 Y23.5417 
G01 X-3.5325 Y23.5793 
G01 X-3.9026 Y23.5869 
G01 X-4.2721 Y23.5643 
G01 X-4.6385 Y23.5116 
G01 X-4.9994 Y23.4292 
G01 X-5.3524 Y23.3177 
G01 X-5.6951 Y23.1778 
G01 X-6.0253 Y23.0104 
G01 X-6.3407 Y22.8166 
G01 X-6.6393 Y22.5978 
G01 X-6.9191 Y22.3554 
G01 X-7.1781 Y22.0910 
G01 X-7.4148 Y21.8063 
G01 X-7.6275 Y21.5033 
G01 X-7.8147 Y21.1840 
G01 X-7.9754 Y20.8505 
G01 X-8.1083 Y20.5050 
G01 X-8.1637 Y20.3162 
G01 X-8.1070 Y20.1140 
G01 X-8.0293 Y19.6920 
G01 X-7.9903 Y19.2646 
G01 X-7.9903 Y18.8354 
G01 X-8.0293 Y18.4080 
G01 X-8.1070 Y17.9860 
G01 X-8.1637 Y17.7838 
G01 X-8.1083 Y17.5950 
G01 X-7.9754 Y17.2495 
G01 X-7.8147 Y16.9160 
G01 X-7.6275 Y16.5967 
G01 X-7.4148 Y16.2937 
G01 X-7.1781 Y16.0090 
G01 X-6.9191 Y15.7446 
G01 X-6.6393 Y15.5022 
G01 X-6.3407 Y15.2834 
G01 X-6.0253 Y15.0896 
G01 X-5.6951 Y14.9222 
G01 X-5.3524 Y14.7823 
G01 X-4.9994 Y14.6708 
G01 X-4.6385 Y14.5884 
G01 X-4.2721 Y14.5357 
G01 X-3.9026 Y14.5131 
G01 X-3.5325 Y14.5206 
G01 X-3.1642 Y14.5583 
G01 X-2.8002 Y14.6259 
G01 X-2.4430 Y14.7230 
G01 X-2.0948 Y14.8488 
G01 X-1.7581 Y15.0026 
G01 X-1.4350 Y15.1833 
G01 X-1.1278 Y15.3897 
G01 X-0.8383 Y15.6205 
G01 X-0.5687 Y15.8742 
G00 Z2.5400  
G00 X1.6305  Y21.4089 
G01 Z-0.1778 F127   
G01 X1.6305  Y47.1942 F127   
G01 X-4.2969 Y47.1942 
G01 X-4.1538 Y47.1229 
G01 X-3.7994 Y46.9035 
G01 X-3.4667 Y46.6522 
G01 X-3.1586 Y46.3714 
G01 X-2.8778 Y46.0633 
G01 X-2.6265 Y45.7306 
G01 X-2.4071 Y45.3762 
G01 X-2.2212 Y45.0030 
G01 X-2.0707 Y44.6143 
G01 X-1.9566 Y44.2133 
G01 X-1.8800 Y43.8035 
G01 X-1.8415 Y43.3884 
G01 X-1.8415 Y43.1112 
G01 X-1.8415 Y24.6439 
G01 X-1.5668 Y24.5446 
G01 X-1.1264 Y24.3435 
G01 X-0.7039 Y24.1071 
G01 X-0.3020 Y23.8371 
G01 X0.0765  Y23.5353 
G01 X0.4292  Y23.2035 
G01 X0.7536  Y22.8442 
G01 X1.0477  Y22.4596 
G01 X1.3094  Y22.0523 
G01 X1.5371  Y21.6250 
G01 X1.6305  Y21.4089 
G00 Z2.5400  
G00 X-3.2385 Y24.9524 
G01 Z-0.1778 F127   
G01 X-3.2385 Y43.1800 F127   
G01 X-3.2418 Y43.3237 
G01 X-3.2683 Y43.6099 
G01 X-3.3211 Y43.8924 
G01 X-3.3998 Y44.1688 
G01 X-3.5036 Y44.4368 
G01 X-3.6317 Y44.6941 
G01 X-3.7830 Y44.9384 
G01 X-3.9562 Y45.1678 
G01 X-4.1498 Y45.3802 
G01 X-4.3622 Y45.5738 
G01 X-4.5916 Y45.7470 
G01 X-4.8359 Y45.8983 
G01 X-5.0932 Y46.0264 
G01 X-5.3612 Y46.1302 
G01 X-5.6376 Y46.2089 
G01 X-5.9201 Y46.2617 
G01 X-6.2063 Y46.2882 
G01 X-6.3500 Y46.2915 
G01 X-7.6200 Y46.2915 
G01 X-7.7637 Y46.2882 
G01 X-8.0499 Y46.2617 
G01 X-8.3324 Y46.2089 
G01 X-8.6088 Y46.1302 
G01 X-8.8768 Y46.0264 
G01 X-9.1341 Y45.8983 
G01 X-9.3784 Y45.7470 
G01 X-9.6078 Y45.5738 
G01 X-9.8202 Y45.3802 
G01 X-10.0138 Y45.1678 
G01 X-10.1870 Y44.9384 
G01 X-10.3383 Y44.6941 
G01 X-10.4664 Y44.4368 
G01 X-10.5702 Y44.1688 
G01 X-10.6489 Y43.8924 
G01 X-10.7017 Y43.6099 
G01 X-10.7282 Y43.3237 
G01 X-10.7315 Y43.1800 
G01 X-10.7315 Y23.3336 
G01 X-10.7238 Y23.3304 
G01 X-10.3427 Y23.1330 
G01 X-9.9812 Y22.9017 
G01 X-9.6422 Y22.6385 
G01 X-9.3285 Y22.3456 
G01 X-9.0428 Y22.0253 
G01 X-8.9852 Y21.9475 
G01 X-8.8027 Y22.2586 
G01 X-8.5246 Y22.6549 
G01 X-8.2150 Y23.0272 
G01 X-7.8762 Y23.3730 
G01 X-7.5103 Y23.6900 
G01 X-7.1198 Y23.9762 
G01 X-6.7072 Y24.2296 
G01 X-6.2754 Y24.4485 
G01 X-5.8272 Y24.6315 
G01 X-5.3655 Y24.7774 
G01 X-4.8935 Y24.8851 
G01 X-4.4143 Y24.9540 
G01 X-3.9311 Y24.9836 
G01 X-3.4470 Y24.9737 
G01 X-3.2385 Y24.9524 
G00 Z2.5400  
G00 X-10.3276 Y21.3690 
G01 Z-0.1778 F127   
G01 X-10.5483 Y21.5752 F127   
G01 X-10.7868 Y21.7604 
G01 X-11.0412 Y21.9231 
G01 X-11.3093 Y22.0621 
G01 X-11.5890 Y22.1760 
G01 X-11.6212 Y22.1858 
G01 X-11.6337 Y22.1883 
G01 X-11.6459 Y22.1934 
G01 X-11.8779 Y22.2641 
G01 X-12.1736 Y22.3256 
G01 X-12.4736 Y22.3599 
G01 X-12.7755 Y22.3667 
G01 X-13.0768 Y22.3461 
G01 X-13.3750 Y22.2982 
G01 X-13.6676 Y22.2234 
G01 X-13.9521 Y22.1222 
G01 X-14.2263 Y21.9956 
G01 X-14.4878 Y21.8446 
G01 X-14.7346 Y21.6705 
G01 X-14.9644 Y21.4746 
G01 X-15.1755 Y21.2587 
G01 X-15.3661 Y21.0244 
G01 X-15.5346 Y20.7738 
G01 X-15.6796 Y20.5089 
G01 X-15.7999 Y20.2319 
G01 X-15.8946 Y19.9451 
G01 X-15.9627 Y19.6509 
G01 X-16.0038 Y19.3517 
G01 X-16.0176 Y19.0500 
G01 X-16.0038 Y18.7483 
G01 X-15.9627 Y18.4491 
G01 X-15.8946 Y18.1549 
G01 X-15.7999 Y17.8681 
G01 X-15.6796 Y17.5911 
G01 X-15.5346 Y17.3262 
G01 X-15.3661 Y17.0756 
G01 X-15.1755 Y16.8413 
G01 X-14.9644 Y16.6254 
G01 X-14.7346 Y16.4295 
G01 X-14.4878 Y16.2554 
G01 X-14.2263 Y16.1044 
G01 X-13.9521 Y15.9778 
G01 X-13.6676 Y15.8766 
G01 X-13.3750 Y15.8018 
G01 X-13.0768 Y15.7539 
G01 X-12.7755 Y15.7333 
G01 X-12.4736 Y15.7401 
G01 X-12.1736 Y15.7744 
G01 X-11.8779 Y15.8359 
G01 X-11.5890 Y15.9240 
G01 X-11.3093 Y16.0379 
G01 X-11.0412 Y16.1769 
G01 X-10.7868 Y16.3396 
G01 X-10.5483 Y16.5248 
G01 X-10.3276 Y16.7310 
G01 X-10.1265 Y16.9563 
G01 X-9.9468 Y17.1990 
G01 X-9.7899 Y17.4570 
G01 X-9.6571 Y17.7283 
G01 X-9.6149 Y17.8388 
G01 X-9.6660 Y18.0857 
G01 X-9.7251 Y18.5663 
G01 X-9.7448 Y19.0500 
G01 X-9.7251 Y19.5337 
G01 X-9.6660 Y20.0143 
G01 X-9.6149 Y20.2612 
G01 X-9.6571 Y20.3717 
G01 X-9.7899 Y20.6430 
G01 X-9.9468 Y20.9010 
G01 X-10.1265 Y21.1437 
G01 X-10.3276 Y21.3690 
G00 Z2.5400  
G00 X-10.3427 Y14.9670 
G01 Z-0.1778 F127   
G01 X-10.3427 Y14.9670 F127   
G01 X-10.7238 Y14.7696 
G01 X-11.1212 Y14.6076 
G01 X-11.5317 Y14.4825 
G01 X-11.9519 Y14.3951 
G01 X-12.3783 Y14.3464 
G01 X-12.8073 Y14.3366 
G01 X-13.2355 Y14.3659 
G01 X-13.6592 Y14.4340 
G01 X-14.0750 Y14.5404 
G01 X-14.4794 Y14.6841 
G01 X-14.8690 Y14.8640 
G01 X-15.2407 Y15.0786 
G01 X-15.5913 Y15.3261 
G01 X-15.9180 Y15.6044 
G01 X-16.2179 Y15.9113 
G01 X-16.4888 Y16.2442 
G01 X-16.7282 Y16.6004 
G01 X-16.9203 Y16.9512 
G01 X-16.9203 Y13.6095 
G01 X-6.1725 Y13.6095 
G01 X-6.2754 Y13.6515 
G01 X-6.7072 Y13.8704 
G01 X-7.1198 Y14.1238 
G01 X-7.5103 Y14.4100 
G01 X-7.8762 Y14.7270 
G01 X-8.2150 Y15.0728 
G01 X-8.5246 Y15.4451 
G01 X-8.8027 Y15.8414 
G01 X-8.9852 Y16.1525 
G01 X-9.0428 Y16.0747 
G01 X-9.3285 Y15.7544 
G01 X-9.6422 Y15.4615 
G01 X-9.9812 Y15.1983 
G01 X-10.3427 Y14.9670 
G00 Z2.5400  
G00 X-0.7545 Y15.8689 
G01 Z-0.1778 F127   
G01 X-0.5084 Y16.1251 F127   
G01 X-0.2838 Y16.4002 
G01 X-0.0820 Y16.6926 
G01 X0.0956  Y17.0002 
G01 X0.2479  Y17.3211 
G01 X0.3738  Y17.6532 
G01 X0.4727  Y17.9944 
G01 X0.5437  Y18.3424 
G01 X0.5865  Y18.6951 
G01 X0.6008  Y19.0500 
G01 X0.5865  Y19.4049 
G01 X0.5437  Y19.7575 
G01 X0.4727  Y20.1056 
G01 X0.3738  Y20.4468 
G01 X0.2479  Y20.7789 
G01 X0.0956  Y21.0998 
G01 X-0.0820 Y21.4074 
G01 X-0.2838 Y21.6998 
G01 X-0.5084 Y21.9749 
G01 X-0.7545 Y22.2311 
G01 X-1.0204 Y22.4667 
G01 X-1.3043 Y22.6801 
G01 X-1.6046 Y22.8699 
G01 X-1.9191 Y23.0350 
G01 X-2.2459 Y23.1742 
G01 X-2.5828 Y23.2867 
G01 X-2.9277 Y23.3717 
G01 X-3.2783 Y23.4287 
G01 X-3.6324 Y23.4573 
G01 X-3.9876 Y23.4573 
G01 X-4.3417 Y23.4287 
G01 X-4.6923 Y23.3717 
G01 X-5.0372 Y23.2867 
G01 X-5.3741 Y23.1742 
G01 X-5.7009 Y23.0350 
G01 X-6.0154 Y22.8699 
G01 X-6.3156 Y22.6801 
G01 X-6.5996 Y22.4667 
G01 X-6.8655 Y22.2311 
G01 X-7.1116 Y21.9749 
G01 X-7.3362 Y21.6998 
G01 X-7.5380 Y21.4074 
G01 X-7.7156 Y21.0998 
G01 X-7.8679 Y20.7789 
G01 X-7.9938 Y20.4468 
G01 X-8.0296 Y20.3235 
G01 X-7.9362 Y19.9145 
G01 X-7.8779 Y19.4840 
G01 X-7.8584 Y19.0500 
G01 X-7.8779 Y18.6160 
G01 X-7.9362 Y18.1855 
G01 X-8.0296 Y17.7765 
G01 X-7.9938 Y17.6532 
G01 X-7.8679 Y17.3211 
G01 X-7.7156 Y17.0002 
G01 X-7.5380 Y16.6926 
G01 X-7.3362 Y16.4002 
G01 X-7.1116 Y16.1251 
G01 X-6.8655 Y15.8689 
G01 X-6.5996 Y15.6333 
G01 X-6.3156 Y15.4199 
G01 X-6.0154 Y15.2301 
G01 X-5.7009 Y15.0650 
G01 X-5.3741 Y14.9258 
G01 X-5.0372 Y14.8133 
G01 X-4.6923 Y14.7283 
G01 X-4.3417 Y14.6713 
G01 X-3.9876 Y14.6427 
G01 X-3.6324 Y14.6427 
G01 X-3.2783 Y14.6713 
G01 X-2.9277 Y14.7283 
G01 X-2.5828 Y14.8133 
G01 X-2.2459 Y14.9258 
G01 X-1.9191 Y15.0650 
G01 X-1.6046 Y15.2301 
G01 X-1.3044 Y15.4199 
G01 X-1.0204 Y15.6333 
G01 X-0.7545 Y15.8689 
G00 Z2.5400  
G00 X-6.4773 Y13.6095 
G01 Z-0.1778 F127   
G01 X-6.8409 Y13.8003 F127   
G01 X-7.2535 Y14.0612 
G01 X-7.6438 Y14.3545 
G01 X-8.0092 Y14.6782 
G01 X-8.3474 Y15.0303 
G01 X-8.6561 Y15.4084 
G01 X-8.9334 Y15.8102 
G01 X-9.0022 Y15.9294 
G01 X-9.0539 Y15.8645 
G01 X-9.3542 Y15.5505 
G01 X-9.6813 Y15.2647 
G01 X-10.0328 Y15.0093 
G01 X-10.4057 Y14.7865 
G01 X-10.7971 Y14.5980 
G01 X-11.2039 Y14.4454 
G01 X-11.6226 Y14.3298 
G01 X-12.0501 Y14.2522 
G01 X-12.4828 Y14.2133 
G01 X-12.9172 Y14.2133 
G01 X-13.3499 Y14.2522 
G01 X-13.7774 Y14.3298 
G01 X-14.1961 Y14.4454 
G01 X-14.6029 Y14.5980 
G01 X-14.9943 Y14.7865 
G01 X-15.3672 Y15.0093 
G01 X-15.7187 Y15.2647 
G01 X-16.0458 Y15.5505 
G01 X-16.3461 Y15.8645 
G01 X-16.6169 Y16.2042 
G01 X-16.8563 Y16.5668 
G01 X-16.9203 Y16.6857 
G01 X-16.9203 Y13.6095 
G01 X-6.4773 Y13.6095 
G00 Z2.5400  
G00 X-10.4951 Y16.7439 
G01 Z-0.1778 F127   
G01 X-10.2973 Y16.9508 F127   
G01 X-10.1188 Y17.1746 
G01 X-9.9610 Y17.4135 
G01 X-9.8254 Y17.6657 
G01 X-9.7468 Y17.8495 
G01 X-9.7933 Y18.0776 
G01 X-9.8522 Y18.5622 
G01 X-9.8718 Y19.0500 
G01 X-9.8522 Y19.5378 
G01 X-9.7933 Y20.0224 
G01 X-9.7468 Y20.2505 
G01 X-9.8254 Y20.4343 
G01 X-9.9610 Y20.6865 
G01 X-10.1188 Y20.9254 
G01 X-10.2973 Y21.1492 
G01 X-10.4951 Y21.3561 
G01 X-10.7107 Y21.5445 
G01 X-10.9423 Y21.7128 
G01 X-11.1881 Y21.8596 
G01 X-11.4460 Y21.9838 
G01 X-11.6596 Y22.0640 
G01 X-11.6708 Y22.0662 
G01 X-11.7161 Y22.0850 
G01 X-11.9900 Y22.1606 
G01 X-12.2717 Y22.2117 
G01 X-12.5569 Y22.2374 
G01 X-12.8431 Y22.2374 
G01 X-13.1283 Y22.2117 
G01 X-13.4100 Y22.1606 
G01 X-13.6859 Y22.0844 
G01 X-13.9540 Y21.9838 
G01 X-14.2119 Y21.8596 
G01 X-14.4577 Y21.7128 
G01 X-14.6893 Y21.5445 
G01 X-14.9049 Y21.3561 
G01 X-15.1027 Y21.1492 
G01 X-15.2812 Y20.9254 
G01 X-15.4390 Y20.6865 
G01 X-15.5746 Y20.4343 
G01 X-15.6871 Y20.1711 
G01 X-15.7756 Y19.8988 
G01 X-15.8393 Y19.6197 
G01 X-15.8777 Y19.3360 
G01 X-15.8906 Y19.0500 
G01 X-15.8777 Y18.7640 
G01 X-15.8393 Y18.4803 
G01 X-15.7756 Y18.2012 
G01 X-15.6871 Y17.9289 
G01 X-15.5746 Y17.6657 
G01 X-15.4390 Y17.4135 
G01 X-15.2812 Y17.1746 
G01 X-15.1027 Y16.9508 
G01 X-14.9049 Y16.7439 
G01 X-14.6893 Y16.5555 
G01 X-14.4577 Y16.3872 
G01 X-14.2119 Y16.2404 
G01 X-13.9540 Y16.1162 
G01 X-13.6859 Y16.0156 
G01 X-13.4100 Y15.9394 
G01 X-13.1283 Y15.8883 
G01 X-12.8431 Y15.8626 
G01 X-12.5569 Y15.8626 
G01 X-12.2717 Y15.8883 
G01 X-11.9900 Y15.9394 
G01 X-11.7141 Y16.0156 
G01 X-11.4460 Y16.1162 
G01 X-11.1881 Y16.2404 
G01 X-10.9423 Y16.3872 
G01 X-10.7107 Y16.5555 
G01 X-10.4951 Y16.7439 
G00 Z2.5400  
G00 X-10.4057 Y23.3135 
G01 Z-0.1778 F127   
G01 X-10.4057 Y23.3135 F127   
G01 X-10.0328 Y23.0907 
G01 X-9.6813 Y22.8353 
G01 X-9.3542 Y22.5495 
G01 X-9.0539 Y22.2355 
G01 X-9.0022 Y22.1706 
G01 X-8.9334 Y22.2898 
G01 X-8.6561 Y22.6916 
G01 X-8.3474 Y23.0697 
G01 X-8.0092 Y23.4218 
G01 X-7.6438 Y23.7455 
G01 X-7.2535 Y24.0388 
G01 X-6.8409 Y24.2997 
G01 X-6.4087 Y24.5266 
G01 X-5.9596 Y24.7179 
G01 X-5.4965 Y24.8725 
G01 X-5.0225 Y24.9893 
G01 X-4.5407 Y25.0676 
G01 X-4.0541 Y25.1069 
G01 X-3.5659 Y25.1069 
G01 X-3.3655 Y25.0907 
G01 X-3.3655 Y43.1800 
G01 X-3.3683 Y43.3102 
G01 X-3.3910 Y43.5696 
G01 X-3.4362 Y43.8260 
G01 X-3.5036 Y44.0775 
G01 X-3.5927 Y44.3221 
G01 X-3.7027 Y44.5581 
G01 X-3.8329 Y44.7836 
G01 X-3.9822 Y44.9968 
G01 X-4.1496 Y45.1963 
G01 X-4.3337 Y45.3804 
G01 X-4.5332 Y45.5478 
G01 X-4.7464 Y45.6971 
G01 X-4.9719 Y45.8273 
G01 X-5.2079 Y45.9373 
G01 X-5.4525 Y46.0264 
G01 X-5.7040 Y46.0938 
G01 X-5.9604 Y46.1390 
G01 X-6.2198 Y46.1617 
G01 X-6.3500 Y46.1645 
G01 X-7.6200 Y46.1645 
G01 X-7.7502 Y46.1617 
G01 X-8.0096 Y46.1390 
G01 X-8.2660 Y46.0938 
G01 X-8.5175 Y46.0264 
G01 X-8.7621 Y45.9373 
G01 X-8.9981 Y45.8273 
G01 X-9.2236 Y45.6971 
G01 X-9.4368 Y45.5478 
G01 X-9.6363 Y45.3804 
G01 X-9.8204 Y45.1963 
G01 X-9.9878 Y44.9968 
G01 X-10.1371 Y44.7836 
G01 X-10.2673 Y44.5581 
G01 X-10.3773 Y44.3221 
G01 X-10.4664 Y44.0775 
G01 X-10.5338 Y43.8260 
G01 X-10.5790 Y43.5696 
G01 X-10.6017 Y43.3102 
G01 X-10.6045 Y43.1800 
G01 X-10.6045 Y23.4092 
G01 X-10.4057 Y23.3135 
G00 Z2.5400  
G00 X-12.2555 Y23.8663 
G01 Z-0.1778 F127   
G01 X-12.2555 Y43.0987 F127   
G01 X-12.2555 Y43.3824 
G01 X-12.2202 Y43.7856 
G01 X-12.1499 Y44.1843 
G01 X-12.0452 Y44.5752 
G01 X-11.9067 Y44.9556 
G01 X-11.7357 Y45.3225 
G01 X-11.5333 Y45.6730 
G01 X-11.3011 Y46.0046 
G01 X-11.0409 Y46.3147 
G01 X-10.7547 Y46.6009 
G01 X-10.4446 Y46.8611 
G01 X-10.1130 Y47.0933 
G01 X-9.9382 Y47.1942 
G01 X-16.9203 Y47.1942 
G01 X-16.9203 Y21.4142 
G01 X-16.8563 Y21.5332 
G01 X-16.6169 Y21.8958 
G01 X-16.3461 Y22.2355 
G01 X-16.0458 Y22.5495 
G01 X-15.7187 Y22.8353 
G01 X-15.3672 Y23.0907 
G01 X-14.9943 Y23.3135 
G01 X-14.6029 Y23.5020 
G01 X-14.1961 Y23.6546 
G01 X-13.7774 Y23.7702 
G01 X-13.3499 Y23.8478 
G01 X-12.9172 Y23.8867 
G01 X-12.4828 Y23.8867 
G01 X-12.2555 Y23.8663 
G00 Z2.5400  
G00 X-1.7145 Y24.7360 
G01 Z-0.1778 F127   
G01 X-1.6604 Y24.7179 F127   
G01 X-1.2113 Y24.5266 
G01 X-0.7791 Y24.2997 
G01 X-0.3665 Y24.0388 
G01 X0.0238  Y23.7455 
G01 X0.3892  Y23.4218 
G01 X0.7274  Y23.0697 
G01 X1.0361  Y22.6916 
G01 X1.3134  Y22.2898 
G01 X1.5575  Y21.8671 
G01 X1.6305  Y21.7131 
G01 X1.6305  Y47.1942 
G01 X-4.0318 Y47.1942 
G01 X-3.8570 Y47.0933 
G01 X-3.5254 Y46.8611 
G01 X-3.2153 Y46.6009 
G01 X-2.9291 Y46.3147 
G01 X-2.6689 Y46.0046 
G01 X-2.4367 Y45.6730 
G01 X-2.2343 Y45.3225 
G01 X-2.0633 Y44.9556 
G01 X-1.9248 Y44.5752 
G01 X-1.8201 Y44.1843 
G01 X-1.7498 Y43.7856 
G01 X-1.7145 Y43.3824 
G01 X-1.7145 Y43.0987 
G01 X-1.7145 Y24.7360 
G00 Z2.5400  
G00 Z12.7000 
M05
M02
